ui_kit/lib/assets/icons/event.svg

<svg width="34" height="40" viewBox="0 0 34 40" fill="none" xmlns="http://www.w3.org/2000/svg">
<path d="M33.3839 18.0811C33.3839 15.4548 31.737 13.0584 28.7451 11.3307L11.6924 1.48453C8.70055 -0.243105 5.80037 -0.470523 3.52619 0.842629C1.25202 2.15578 0 4.78086 0 8.23492V27.9261C0 30.8862 0.958577 33.3071 2.69967 34.7437C3.82208 35.6705 5.23182 36.151 6.77117 36.151H6.79685C7.27614 37.54 8.121 38.6172 9.28744 39.2896C10.1091 39.764 11.0261 40 12.0006 40C13.2831 40 14.666 39.5916 16.0696 38.7822L29.5545 30.9962C31.8323 29.6819 33.1846 27.8466 33.3643 25.8292C33.4878 24.4476 33.0477 23.0916 32.1111 21.9008C32.9462 20.7282 33.3839 19.4346 33.3839 18.0799V18.0811ZM30.271 25.5541C30.1842 26.5347 29.3772 27.5128 28.0005 28.3076L14.5156 36.0936C13.0679 36.9299 11.7279 37.1145 10.839 36.601C9.95013 36.0874 9.44027 34.8342 9.44027 33.1628V17.5908C9.44027 15.9194 9.95013 14.6662 10.839 14.1527C11.1704 13.9619 11.5641 13.8678 12.0018 13.8678C12.7415 13.8678 13.6071 14.1355 14.5168 14.6601L15.8556 15.434C15.9755 15.5111 16.1503 15.8131 16.1576 15.9537V24.0209C16.1576 26.0077 16.9426 27.5996 18.3096 28.3895C19.6765 29.1781 21.4482 29.062 23.1709 28.0667L28.7463 24.8315C29.1473 24.6004 29.5227 24.3571 29.8748 24.1028C30.1438 24.5222 30.3211 25.0125 30.2722 25.5541H30.271ZM28.997 20.7881C28.9493 20.8285 28.9052 20.8725 28.8625 20.9202C28.4076 21.3542 27.8476 21.765 27.1911 22.1441L21.6157 25.3793C20.8931 25.7962 20.2365 25.9172 19.8611 25.6996C19.4858 25.4832 19.262 24.8547 19.262 24.0196V15.9524C19.262 14.7139 18.4832 13.3653 17.4109 12.7454L16.0696 11.9714C13.5998 10.5446 11.1911 10.3648 9.28744 11.464C7.38373 12.5632 6.3359 14.7383 6.3359 17.5908V33.0246C5.77469 32.9647 5.19148 32.774 4.67551 32.3485C3.66313 31.5122 3.10437 29.9423 3.10437 27.9249V8.23492C3.10437 5.93751 3.80496 4.26612 5.07899 3.53129C5.56928 3.24885 6.1366 3.10825 6.76261 3.10825C7.76398 3.10825 8.91452 3.46649 10.1396 4.17319L27.1935 14.0194C29.184 15.1687 30.2795 16.6115 30.2795 18.0811C30.2795 19.0177 29.8345 19.9433 28.997 20.7881Z" fill="#66A1FF"/>
</svg>

<svg xmlns="http://www.w3.org/2000/svg" width="34" height="40" fill="none" viewBox="0 0 34 40"><path fill="#66A1FF" d="M33.384 18.081c0-2.626-1.647-5.023-4.639-6.75L11.692 1.485C8.701-.243 5.8-.471 3.526.843 1.252 2.156 0 4.78 0 8.235v19.691c0 2.96.959 5.381 2.7 6.818 1.122.926 2.532 1.407 4.071 1.407h.026c.48 1.389 1.324 2.466 2.49 3.139a5.37 5.37 0 0 0 2.714.71c1.282 0 2.665-.408 4.069-1.218l13.485-7.786c2.277-1.314 3.63-3.15 3.81-5.167.123-1.381-.317-2.737-1.254-3.928.835-1.173 1.273-2.466 1.273-3.821v.001Zm-3.113 7.473c-.087.98-.894 1.959-2.27 2.754l-13.485 7.786c-1.448.836-2.788 1.02-3.677.507-.889-.514-1.399-1.767-1.399-3.438V17.59c0-1.672.51-2.925 1.399-3.438.331-.191.725-.285 1.163-.285.74 0 1.605.268 2.515.792l1.339.774c.12.077.294.38.302.52v8.067c0 1.987.785 3.579 2.152 4.369 1.367.788 3.138.672 4.86-.323l5.576-3.236c.401-.23.777-.474 1.129-.728.269.42.446.91.397 1.451h-.001Zm-1.274-4.766c-.048.04-.092.084-.134.132a8.766 8.766 0 0 1-1.672 1.224l-5.575 3.235c-.723.417-1.38.538-1.755.32-.375-.216-.599-.844-.599-1.68v-8.067c0-1.238-.779-2.587-1.851-3.207l-1.341-.774c-2.47-1.426-4.879-1.606-6.783-.507-1.903 1.1-2.951 3.274-2.951 6.127v15.434a3.074 3.074 0 0 1-1.66-.676c-1.013-.837-1.572-2.407-1.572-4.424V8.235c0-2.297.701-3.969 1.975-4.704.49-.282 1.058-.423 1.684-.423 1.001 0 2.152.358 3.377 1.065l17.053 9.846c1.991 1.15 3.086 2.592 3.086 4.062 0 .937-.445 1.862-1.282 2.707Z"/></svg>
